X: 20
T: Kitchen Girl
R: reel
M: C|
L: 1/8
F:http://jc.tzo.net/~jc/music/abc/Contra/reel/KitchenGirl_A.abc 2007-05-22 22:39:48 UT
K: Amix
|:  "A"[a4c4] "G"[g4B4] | "A"efed c2cd |    ecef    gaba | "Em"g2e2 e2(3efg |
| "A"agaf       "G"gagg   | "A"efed cdef | "G"g2d2 "E"efed |  "A"c2A2 A4 :|
K: Ador
|:  "Am"AB=cA "G"BAGB | "Am"ABAG EDEG | "Am"A2AA    =c2d2 | "E"e3f e2A2 |
| "Am"AB=cA  "G"BAGB | "Am"ABAG EGAB | "Am"=c2A2 "G"BAG2 | "A"A3B A4   :|
